X: 1
T:Spirit of 1880 -- Reel
M:2/4
L:1/16
R:reel
B:Ryan's Mammoth Collection
N:170
Z:Contributed by Ray Davies,  ray:davies99.freeserve.co.uk
K:A
vA,2CE D2FD | E2GB A2cA | BEcE dEcE | BdcB AGFE |
A,2CE D2FD | E2GB A2cA | kf2kg2ka2 (ed) | cABG A2z2 ::
agae fece | .fkb2.g aece | gebe gbeg | fe^df .e2((3efg) |
agae fece | .fkb2.g aece | kf2kg2ka2 (ed) | cABG A2:|
